svgs/light/key.svg

<svg xmlns="http://www.w3.org/2000/svg" viewBox="0 0 512 512"><!-- Font Awesome Pro 5.15.3 by @fontawesome - https://fontawesome.com License - https://fontawesome.com/license (Commercial License) --><path d="M336 32c79.529 0 144 64.471 144 144s-64.471 144-144 144c-18.968 0-37.076-3.675-53.661-10.339L240 352h-48v64h-64v64H32v-80l170.339-170.339C195.675 213.076 192 194.968 192 176c0-79.529 64.471-144 144-144m0-32c-97.184 0-176 78.769-176 176 0 15.307 1.945 30.352 5.798 44.947L7.029 379.716A24.003 24.003 0 0 0 0 396.686V488c0 13.255 10.745 24 24 24h112c13.255 0 24-10.745 24-24v-40h40c13.255 0 24-10.745 24-24v-40h19.314c6.365 0 12.47-2.529 16.971-7.029l30.769-30.769C305.648 350.055 320.693 352 336 352c97.184 0 176-78.769 176-176C512 78.816 433.231 0 336 0zm48 108c11.028 0 20 8.972 20 20s-8.972 20-20 20-20-8.972-20-20 8.972-20 20-20m0-28c-26.51 0-48 21.49-48 48s21.49 48 48 48 48-21.49 48-48-21.49-48-48-48z"/></svg>

<svg xmlns="http://www.w3.org/2000/svg" viewBox="0 0 512 512"><!--! Font Awesome Pro 6.0.0-alpha3 by @fontawesome - https://fontawesome.com License - https://fontawesome.com/license (Commercial License) --><path d="M336 0c-97.13 0-176 78.75-176 176C160 191.2 161.1 206.4 165.8 221L7 379.8C2.5 384.3 0 390.4 0 396.6V488C0 501.3 10.75 512 24 512h112C149.3 512 160 501.3 160 488V448h40C213.3 448 224 437.3 224 424V384h19.38c6.25 0 12.38-2.5 16.88-7l30.75-30.75C305.6 350 320.8 351.1 336 351.1c97.13 0 176-78.75 176-176C512 78.87 433.3 0 336 0zM336 320c-19 0-37.13-3.625-53.63-10.38L240 352H192v64H128v64H32v-80l170.4-170.4C195.6 213.1 192 195 192 176C192 96.5 256.5 32 336 32S480 96.5 480 176S415.5 320 336 320zM384 104c-13.25 0-24 10.74-24 24c0 13.25 10.75 24 24 24S408 141.3 408 128C408 114.7 397.3 104 384 104z"/></svg>
